labtop/public/img/search-icon.svg

<svg width="54" height="54" viewBox="0 0 54 54" fill="none" xmlns="http://www.w3.org/2000/svg">
<path d="M44.8358 42.871L53.8522 32.1794L44.4416 6.71402L17.4909 2L0 22.7514L9.45985 48.1682L36.3613 52.9308L42.9635 45.1065L51.9307 54L54 51.9589L44.8358 42.871ZM42.7664 40.7813L38.0858 36.1645C41.042 32.471 42.0766 27.3682 40.3029 22.6056L37.5438 23.6262C39.6624 29.3607 36.6569 35.7757 30.7938 37.914C28.8723 38.5944 26.9015 38.7888 24.9799 38.4486L24.438 41.3159C25.2263 41.4617 26.0639 41.5589 26.9015 41.5589C28.5766 41.5589 30.2518 41.2673 31.8285 40.6841C33.4051 40.1009 34.8339 39.2748 36.0657 38.2542L40.8942 43.0168L35.1788 49.772L11.6277 45.5925L3.35036 23.3346L18.6734 5.15888L42.2737 9.28972L50.5018 31.5963L42.7664 40.7813ZM22.3686 37.6224L21.2354 40.2953C20.3485 39.9551 19.5109 39.4692 18.6241 38.8374L20.3485 36.5047C21.0383 36.9907 21.6788 37.3308 22.3686 37.6224ZM29.4635 13.5664L28.9215 16.4336C27 16.0935 24.9799 16.2879 23.1077 16.9682C17.2445 19.1065 14.2391 25.5215 16.3577 31.3047L13.5985 32.3252C10.8394 25.0355 14.6825 16.9196 22.073 14.2467C24.4872 13.372 27 13.129 29.4635 13.5664ZM35.2774 16.0449L33.5037 18.4262C32.8139 17.9402 32.1734 17.5514 31.4836 17.2598L32.6168 14.5869C33.5529 14.9271 34.3905 15.4131 35.2774 16.0449Z" fill="#1F65D9"/>
</svg>

<svg width="54" height="54" fill="none" xmlns="http://www.w3.org/2000/svg"><path d="M44.836 42.871l9.016-10.692-9.41-25.465L17.49 2 0 22.751l9.46 25.417 26.901 4.763 6.603-7.825L51.93 54 54 51.959l-9.164-9.088zm-2.07-2.09l-4.68-4.617c2.956-3.693 3.99-8.796 2.217-13.558l-2.76 1.02c2.12 5.735-.886 12.15-6.75 14.288-1.92.68-3.892.875-5.813.535l-.542 2.867a13.65 13.65 0 002.463.243c1.676 0 3.35-.292 4.927-.875a14.535 14.535 0 004.238-2.43l4.828 4.763-5.715 6.755-23.551-4.18L3.35 23.335 18.673 5.159l23.6 4.13 8.229 22.307-7.736 9.185zM22.37 37.622l-1.134 2.673c-.886-.34-1.724-.826-2.61-1.458l1.724-2.332c.69.486 1.33.826 2.02 1.117zm7.095-24.056l-.542 2.868c-1.922-.34-3.942-.146-5.814.534-5.864 2.139-8.869 8.553-6.75 14.337l-2.76 1.02c-2.759-7.29 1.084-15.405 8.475-18.078 2.414-.875 4.927-1.118 7.39-.68zm5.813 2.479l-1.773 2.381c-.69-.486-1.33-.875-2.02-1.166l1.133-2.673c.936.34 1.774.826 2.66 1.458z" fill="#1F65D9"/></svg>
